!!!OTL: AN EINEM FLUSS DER RAUSCHEND SCHOSS
!!!ARE: Europa, Mitteleuropa, Deutschland, Westfalen
!!!SCT: B0647C
!!!YEM: Copyright 1995, estate of Helmut Schaffrath.
**kern
*ICvox
*Ivox
*M6/8
*k[]
*C:
{8G
=1
8.G
16A
8G
8c
8B
8A
=2
8.G
16A
8G
4E}
{8G
=3
4c
8c
8c
8e
8c
=4
4.d
4r}
{8g
=5
4f
8e
4d
8c
=6
4B
8A
4G}
{8G
=7
8A
8f
8e
8d
8c
8B
=8
4.c
4r}
==
!!!AGN: Moral - Lied, Ballade
!!!ONB: ESAC (Essen Associative Code) Database: BOEHME
!!!AMT: compound duple
!!!AIN: vox
!!!EED: Helmut Schaffrath
!!!EEV: 1.0
*-
